svg/clockface/clockfacerectsolid/clock_02_20.svg

<?xml version="1.0" encoding="UTF-8" standalone="no"?>
<svg
   height="1000"
   width="1000"
   version="1.1"
   viewBox="0 0 1000 1000"
   id="svg7"
   sodipodi:docname="rect_solid_clock_02_20.svg"
   xmlns:inkscape="http://www.inkscape.org/namespaces/inkscape"
   xmlns:sodipodi="http://sodipodi.sourceforge.net/DTD/sodipodi-0.dtd"
   xmlns="http://www.w3.org/2000/svg"
   xmlns:svg="http://www.w3.org/2000/svg">
  <defs
     id="defs11" />
  <sodipodi:namedview
     id="namedview9"
     pagecolor="#505050"
     bordercolor="#ffffff"
     borderopacity="1"
     inkscape:showpageshadow="0"
     inkscape:pageopacity="0"
     inkscape:pagecheckerboard="1"
     inkscape:deskcolor="#505050" />
  <path
     id="path15"
     style="color:#000000;fill:#000000;stroke-width:60;stroke-linecap:round;stroke-linejoin:round;-inkscape-stroke:none"
     d="M 339 129 C 223.17927 129 129 223.17927 129 339 L 129 659 C 129 774.82073 223.17927 869 339 869 L 659 869 C 774.82073 869 869 774.82073 869 659 L 869 339 C 869 223.17927 774.82073 129 659 129 L 339 129 z M 655.88477 380 A 30 30 0 0 1 681.86523 395 A 30 30 0 0 1 670.88477 435.98047 L 560 500 L 748.82617 609.01953 A 30 30 0 0 1 759.80859 650 A 30 30 0 0 1 718.82617 660.98047 L 485 525.98047 A 30.003 30.003 0 0 1 470.6582 506.23633 A 30.003 30.003 0 0 1 485 474.01953 L 640.88477 384.01953 A 30 30 0 0 1 655.88477 380 z " />
</svg>

<svg xmlns="http://www.w3.org/2000/svg" width="1000" height="1000"><path d="M339 129c-115.82 0-210 94.18-210 210v320c0 115.82 94.18 210 210 210h320c115.82 0 210-94.18 210-210V339c0-115.82-94.18-210-210-210H339zm316.885 251a30 30 0 0 1 25.98 15 30 30 0 0 1-10.98 40.98L560 500l188.826 109.02A30 30 0 0 1 759.81 650a30 30 0 0 1-40.983 10.98L485 525.98a30.003 30.003 0 0 1-14.342-19.744A30.003 30.003 0 0 1 485 474.02l155.885-90a30 30 0 0 1 15-4.02z" style="-inkscape-stroke:none" stroke-width="60" stroke-linecap="round" stroke-linejoin="round"/></svg>
